X:1
T:Title
%%score 1 2 3
L:1/8
Q:1/4=100
M:3/4
K:C
V:1 treble nm="Grand Piano, Track 1"
V:2 treble nm="Grand Piano, Melody"
V:3 bass nm="Grand Piano, Track 3"
V:1
 z2 z2 c2 | e4 ed | c4 e2 | d4 d2 | e4 G2 | A4 G2 | c d3 e2 | c6 | z2 z2 c2 | e4 ed | c4 e2 | %11
 d4 d2 | e4 G2 | A4 G2 | c d3 e2 | c6 | z6 | z2 z2 c2 | c4 c2 | d4 e2 | f3 d e2 | d4 c2 | g4 g2 | %23
 g2 e2 c2 | d6- | d6 | z2 z2 c2 | e4 ed | c4 e2 | d4 d2 | e4 G2 | A4 G2 | c d3 e2 | c6 |] %34
V:2
 z2 z2 G,2 | C4 ED | C4[K:bass] A,2 | G,4 G,F, | E,4 G,2 | A,[K:treble] C3 D2 | C G,3 A,2 | C6 | %8
 z2 z2 G,2 | C4 ED | C4[K:bass] A,2 | G,4 G,F, | E,4 G,2 | A,[K:treble] C3 D2 | C G,3 A,2 | C6 | %16
 z6 | z2 z2 C2 | E4 E2 | D4 C2 | F3 G A2 | G4 GE | D4 D2 | D2 E2 F2 | G6- | G6 | z2 z2 ED | C4 ED | %28
 C4[K:bass] A,2 | G,4 G,F, | E,4 G,2 | A,[K:treble] C3 D2 | C G,3 A,2 | C6 |] %34
V:3
 z2 z2 G,2 | C,4 C,2 | C,4 E,2 | G,4 G,F, | E,4 D,2 | C,4 D,2 | E, G,3 E,2 | C,6 | z2 z2 G,2 | %9
 C,4 C,2 | C,4 E,2 | G,4 G,F, | E,4 D,2 | C,4 D,2 | E, G,3 E,2 | C,6 | z6 | z2 z2 F,2 | E,4 E,2 | %19
 G,4 G,2 | C3 B, A,2 | G,4 C,2 | D,4 D,2 | G,2 E,2 C,2 | G,6- | G,6 | z2 z2 G,2 | C,4 C,2 | %28
 C,4 E,2 | G,4 G,F, | E,4 D,2 | C,4 D,2 | E, G,3 E,2 | C,6 |] %34

